packages/calcite-ui-icons/icons/variable-plus-24.svg

<?xml version="1.0" encoding="UTF-8"?><svg id="icons" xmlns="http://www.w3.org/2000/svg" viewBox="0 0 24 24"><defs><style>.cls-1{fill:none;}</style></defs><rect class="cls-1" width="24" height="24"/><path d="M5.5,20h7.5v1h-7.5c-2.48145,0-4.5-2.01855-4.5-4.5V7.5c0-2.48145,2.01855-4.5,4.5-4.5h13c2.48145,0,4.5,2.01855,4.5,4.5v9.5h-1V7.5c0-1.92969-1.57031-3.5-3.5-3.5H5.5c-1.92969,0-3.5,1.57031-3.5,3.5v9c0,1.92969,1.57031,3.5,3.5,3.5ZM12.62238,12.08466l5.08466-5.08466h1.29297v-1h-1.70703l-5.18115,5.18115-2.92822-5.18115h-2.18359v1h1.59961l2.77802,4.91534-5.08466,5.08466h-1.29297v1h1.70703l5.18115-5.18115,2.3631,4.18115h1.14911l-2.77802-4.91534ZM19.99994,19v-4h-1v4h-4v.99902h4v4.00098h1v-4.00098h4.00006v-.99902h-4.00006Z"/></svg>

<svg xmlns="http://www.w3.org/2000/svg" viewBox="0 0 24 24"><path fill="none" d="M0 0h24v24H0z"/><path d="M5.5 20H13v1H5.5A4.505 4.505 0 0 1 1 16.5v-9C1 5.019 3.019 3 5.5 3h13C20.981 3 23 5.019 23 7.5V17h-1V7.5C22 5.57 20.43 4 18.5 4h-13C3.57 4 2 5.57 2 7.5v9C2 18.43 3.57 20 5.5 20zm7.122-7.915L17.707 7H19V6h-1.707l-5.181 5.181L9.184 6H7v1h1.6l2.778 4.915L6.293 17H5v1h1.707l5.181-5.181L14.251 17h1.15l-2.779-4.915zM20 19v-4h-1v4h-4v.999h4V24h1v-4.001h4V19h-4z"/></svg>
